panels/wacom/wacom-stylus-art-pen.svg

<?xml version="1.0" encoding="UTF-8" standalone="no"?>
<!-- Created with Inkscape (http://www.inkscape.org/) -->

<svg
   id="svg86343"
   version="1.1"
   inkscape:version="1.3 (0e150ed6c4, 2023-07-21)"
   width="188.59064"
   height="31.02191"
   sodipodi:docname="wacom-stylus-art-pen.svg"
   xmlns:inkscape="http://www.inkscape.org/namespaces/inkscape"
   xmlns:sodipodi="http://sodipodi.sourceforge.net/DTD/sodipodi-0.dtd"
   xmlns="http://www.w3.org/2000/svg"
   xmlns:svg="http://www.w3.org/2000/svg"
   xmlns:rdf="http://www.w3.org/1999/02/22-rdf-syntax-ns#"
   xmlns:cc="http://creativecommons.org/ns#"
   xmlns:dc="http://purl.org/dc/elements/1.1/">
  <metadata
     id="metadata86349">
    <rdf:RDF>
      <cc:Work
         rdf:about="">
        <dc:format>image/svg+xml</dc:format>
        <dc:type
           rdf:resource="http://purl.org/dc/dcmitype/StillImage" />
        <dc:title />
      </cc:Work>
    </rdf:RDF>
  </metadata>
  <defs
     id="defs86347">
    <inkscape:path-effect
       effect="spiro"
       id="path-effect31574"
       is_visible="true"
       lpeversion="0" />
  </defs>
  <sodipodi:namedview
     pagecolor="#ffffff"
     bordercolor="#666666"
     borderopacity="1"
     objecttolerance="10"
     gridtolerance="10"
     guidetolerance="10"
     inkscape:pageopacity="0"
     inkscape:pageshadow="2"
     inkscape:window-width="1080"
     inkscape:window-height="651"
     id="namedview86345"
     showgrid="false"
     inkscape:snap-nodes="false"
     inkscape:snap-bbox="true"
     inkscape:zoom="1.670234"
     inkscape:cx="146.38667"
     inkscape:cy="34.725672"
     inkscape:window-x="0"
     inkscape:window-y="0"
     inkscape:window-maximized="1"
     inkscape:current-layer="svg86343"
     borderlayer="true"
     inkscape:showpageshadow="false"
     inkscape:pagecheckerboard="0"
     inkscape:deskcolor="#d1d1d1">
    <inkscape:grid
       type="xygrid"
       id="grid86802"
       empspacing="5"
       visible="false"
       enabled="true"
       snapvisiblegridlinesonly="true"
       originx="77.459407"
       originy="-79.696633"
       spacingy="1"
       spacingx="1"
       units="px" />
  </sodipodi:namedview>
  <g
     style="display:inline"
     transform="rotate(90,-56.803429,534.11634)"
     id="g10545">
    <path
       sodipodi:nodetypes="sscsscsccccccccccccccscsscsss"
       inkscape:connector-curvature="0"
       id="stylus"
       class="stylus"
       transform="translate(-928.4063,-95.84375)"
       d="m 351.16741,385.06603 c -2.25232,0 -3.61834,1.53072 -4.16741,4.08946 L 345.53125,396 H 344.125 c -1.9944,0 -3.59375,1.59935 -3.59375,3.59375 V 516 L 338,545.125 c -0.1873,2.15512 1.62589,3.92035 3.75,4.125 l 1.625,6.6639 h 2.20868 l -1.40241,1.58029 c 0,0 3.53964,7.3799 5.83774,7.46829 l 1.42852,-6.9e-4 0.0512,7.31672 3.97602,-2.37893 -0.0292,-4.98639 1.38503,0.0197 c 2.82843,0 5.42789,-7.64858 5.42789,-7.64858 l -1.5299,-1.37038 h 2.20868 l 1.65625,-6.72641 c 1.96694,-0.35188 3.54637,-2.02216 3.40625,-4.0625 L 365.53125,516 V 399.59375 c 0,-1.9944 -1.59935,-3.59375 -3.59375,-3.59375 h -1.40625 L 359,389.15549 c -0.53643,-2.39779 -1.88996,-4.08946 -4.16741,-4.08946 z"
       style="color:#000000;display:inline;overflow:visible;visibility:visible;fill:#d3d7cf;fill-opacity:1;fill-rule:nonzero;stroke:none;stroke-width:1px;stroke-linecap:butt;stroke-linejoin:miter;stroke-miterlimit:4;stroke-dasharray:none;stroke-dashoffset:0;stroke-opacity:1;marker:none;enable-background:accumulate" />
    <rect
       style="color:#000000;display:inline;overflow:visible;visibility:visible;fill:#eeeeec;fill-opacity:1;fill-rule:nonzero;stroke:none;stroke-width:1px;stroke-linecap:butt;stroke-linejoin:miter;stroke-miterlimit:4;stroke-dasharray:none;stroke-dashoffset:0;stroke-opacity:1;marker:none;enable-background:accumulate"
       id="button1"
       class="button"
       width="9.0059462"
       height="35.214661"
       x="-579.93378"
       y="385.90622"
       rx="4.5029731"
       ry="4.5029731" />
  </g>
</svg>

<?xml version="1.0" encoding="UTF-8" standalone="no"?>
<!-- Created with Inkscape (http://www.inkscape.org/) -->

<svg
   id="svg86343"
   version="1.1"
   inkscape:version="1.3.2 (091e20ef0f, 2023-11-25)"
   width="188.59064"
   height="31.02191"
   sodipodi:docname="wacom-stylus-art-pen.svg"
   xmlns:inkscape="http://www.inkscape.org/namespaces/inkscape"
   xmlns:sodipodi="http://sodipodi.sourceforge.net/DTD/sodipodi-0.dtd"
   xmlns="http://www.w3.org/2000/svg"
   xmlns:svg="http://www.w3.org/2000/svg"
   xmlns:rdf="http://www.w3.org/1999/02/22-rdf-syntax-ns#"
   xmlns:cc="http://creativecommons.org/ns#"
   xmlns:dc="http://purl.org/dc/elements/1.1/">
  <metadata
     id="metadata86349">
    <rdf:RDF>
      <cc:Work
         rdf:about="">
        <dc:format>image/svg+xml</dc:format>
        <dc:type
           rdf:resource="http://purl.org/dc/dcmitype/StillImage" />
        <dc:title />
      </cc:Work>
    </rdf:RDF>
  </metadata>
  <defs
     id="defs86347">
    <inkscape:path-effect
       effect="spiro"
       id="path-effect31574"
       is_visible="true"
       lpeversion="0" />
  </defs>
  <sodipodi:namedview
     pagecolor="#ffffff"
     bordercolor="#666666"
     borderopacity="1"
     objecttolerance="10"
     gridtolerance="10"
     guidetolerance="10"
     inkscape:pageopacity="0"
     inkscape:pageshadow="2"
     inkscape:window-width="1080"
     inkscape:window-height="651"
     id="namedview86345"
     showgrid="false"
     inkscape:snap-nodes="false"
     inkscape:snap-bbox="true"
     inkscape:zoom="11.431911"
     inkscape:cx="78.683258"
     inkscape:cy="7.9164368"
     inkscape:window-x="0"
     inkscape:window-y="0"
     inkscape:window-maximized="1"
     inkscape:current-layer="g10545"
     borderlayer="true"
     inkscape:showpageshadow="false"
     inkscape:pagecheckerboard="0"
     inkscape:deskcolor="#d1d1d1">
    <inkscape:grid
       type="xygrid"
       id="grid86802"
       empspacing="5"
       visible="false"
       enabled="true"
       snapvisiblegridlinesonly="true"
       originx="77.459407"
       originy="-79.696633"
       spacingy="1"
       spacingx="1"
       units="px" />
  </sodipodi:namedview>
  <g
     style="display:inline"
     transform="rotate(90,-56.803429,534.11634)"
     id="g10545">
    <path
       id="stylus"
       style="color:#000000;display:inline;overflow:visible;visibility:visible;fill:#d3d7cf;fill-opacity:1;fill-rule:nonzero;stroke:none;stroke-width:1px;stroke-linecap:butt;stroke-linejoin:miter;stroke-miterlimit:4;stroke-dasharray:none;stroke-dashoffset:0;stroke-opacity:1;marker:none;enable-background:accumulate"
       class="stylus"
       d="M 338.0002 545.12541 C 337.8129 547.28053 339.62609 549.04576 341.7502 549.25041 L 343.3752 555.91447 L 345.58419 555.91447 L 344.18184 557.49455 C 344.18184 557.49455 347.72164 564.87491 350.01973 564.9633 L 351.44747 564.96135 L 351.49825 572.27775 L 355.47481 569.89885 L 355.44552 564.91252 L 356.83028 564.93205 C 359.65871 564.93205 362.25802 557.28361 362.25802 557.28361 L 360.72872 555.91447 L 362.9377 555.91447 L 364.59395 549.18791 C 366.56089 548.83603 368.14032 547.16575 368.0002 545.12541 L 365.53145 516.00041 L 365.53145 399.59416 C 365.53145 397.59976 363.9321 396.00041 361.9377 396.00041 L 360.53145 396.00041 L 359.0002 389.15471 C 358.46377 386.75692 357.10968 385.06682 354.83223 385.06682 L 351.16817 385.06682 C 348.91585 385.06682 347.54927 386.59597 347.0002 389.15471 L 345.53145 396.00041 L 344.1252 396.00041 C 342.1308 396.00041 340.53145 397.59976 340.53145 399.59416 L 340.53145 516.00041 L 338.0002 545.12541 z M 348.47286 512.46135 L 348.47286 486.25236 C 348.47286 483.75772 350.48017 481.75041 352.97481 481.75041 C 355.46946 481.75041 357.47872 483.75772 357.47872 486.25236 L 357.47872 512.46135 C 357.47872 514.95599 355.46946 516.96525 352.97481 516.96525 C 350.48017 516.96525 348.47286 514.95599 348.47286 512.46135 z "
       transform="translate(-928.4063,-95.84375)" />
  </g>
</svg>
